static/img/kroki/362a88f9c2e4acd960cd9b3315ca676a.svg

<?xml version="1.0" encoding="us-ascii" standalone="no"?><svg xmlns="http://www.w3.org/2000/svg" xmlns:xlink="http://www.w3.org/1999/xlink" contentStyleType="text/css" height="767px" preserveAspectRatio="none" style="width:368px;height:767px;" version="1.1" viewBox="0 0 368 767" width="368px" zoomAndPan="magnify"><defs/><g><!--class digitalocean_alert_policy--><g id="elem_digitalocean_alert_policy"><rect codeLine="23" fill="#3D176E" height="126.6797" id="digitalocean_alert_policy" rx="2.5" ry="2.5" style="stroke:#000D19;stroke-width:0.5;" width="248" x="19.5" y="633.84"/><ellipse cx="34.5" cy="653.7345" fill="#ADD1B2" rx="11" ry="11" style="stroke:#181818;stroke-width:1.0;"/><path d="M37.4688,659.3752 Q36.8906,659.672 36.25,659.8127 Q35.6094,659.9689 34.9063,659.9689 Q32.4063,659.9689 31.0781,658.3283 Q29.7656,656.672 29.7656,653.547 Q29.7656,650.422 31.0781,648.7658 Q32.4063,647.1095 34.9063,647.1095 Q35.6094,647.1095 36.25,647.2658 Q36.9063,647.422 37.4688,647.7189 L37.4688,650.4377 Q36.8438,649.8595 36.25,649.5939 Q35.6563,649.3127 35.0313,649.3127 Q33.6875,649.3127 33,650.3908 Q32.3125,651.4533 32.3125,653.547 Q32.3125,655.6408 33,656.7189 Q33.6875,657.7814 35.0313,657.7814 Q35.6563,657.7814 36.25,657.5158 Q36.8438,657.2345 37.4688,656.6564 L37.4688,659.3752 Z " fill="#000000"/><text fill="#D9B8FF" font-family="Helvetica" font-size="17" lengthAdjust="spacing" textLength="206" x="53.5" y="659.6198">digitalocean_alert_policy</text><line style="stroke:#000D19;stroke-width:0.5;" x1="20.5" x2="266.5" y1="673.6291" y2="673.6291"/><text fill="#D9B8FF" font-family="sans-serif" font-size="14" font-weight="bold" lengthAdjust="spacing" textLength="89" x="30.5" y="695.6242">description</text><text fill="#D9B8FF" font-family="sans-serif" font-size="14" lengthAdjust="spacing" textLength="48" x="119.5" y="695.6242">: string</text><text fill="#D9B8FF" font-family="sans-serif" font-size="14" font-weight="bold" lengthAdjust="spacing" textLength="83" x="30.5" y="721.9211">is_enabled</text><text fill="#D9B8FF" font-family="sans-serif" font-size="14" lengthAdjust="spacing" textLength="65" x="113.5" y="721.9211">: boolean</text><text fill="#D9B8FF" font-family="sans-serif" font-size="14" font-weight="bold" lengthAdjust="spacing" textLength="88" x="30.5" y="748.2179">policy_type</text><text fill="#D9B8FF" font-family="sans-serif" font-size="14" lengthAdjust="spacing" textLength="48" x="118.5" y="748.2179">: string</text></g><!--class digitalocean_resource--><g id="elem_digitalocean_resource"><rect codeLine="28" fill="#3D176E" height="74.0859" id="digitalocean_resource" rx="2.5" ry="2.5" style="stroke:#000D19;stroke-width:0.5;" width="223" x="138" y="438.75"/><ellipse cx="153" cy="458.6445" fill="#ADD1B2" rx="11" ry="11" style="stroke:#181818;stroke-width:1.0;"/><path d="M155.9688,464.2852 Q155.3906,464.582 154.75,464.7227 Q154.1094,464.8789 153.4063,464.8789 Q150.9063,464.8789 149.5781,463.2383 Q148.2656,461.582 148.2656,458.457 Q148.2656,455.332 149.5781,453.6758 Q150.9063,452.0195 153.4063,452.0195 Q154.1094,452.0195 154.75,452.1758 Q155.4063,452.332 155.9688,452.6289 L155.9688,455.3477 Q155.3438,454.7695 154.75,454.5039 Q154.1563,454.2227 153.5313,454.2227 Q152.1875,454.2227 151.5,455.3008 Q150.8125,456.3633 150.8125,458.457 Q150.8125,460.5508 151.5,461.6289 Q152.1875,462.6914 153.5313,462.6914 Q154.1563,462.6914 154.75,462.4258 Q155.3438,462.1445 155.9688,461.5664 L155.9688,464.2852 Z " fill="#000000"/><text fill="#D9B8FF" font-family="Helvetica" font-size="17" lengthAdjust="spacing" textLength="181" x="172" y="464.5298">digitalocean_resource</text><line style="stroke:#000D19;stroke-width:0.5;" x1="139" x2="360" y1="478.5391" y2="478.5391"/><text fill="#D9B8FF" font-family="sans-serif" font-size="14" font-weight="bold" lengthAdjust="spacing" textLength="27" x="149" y="500.5342">urn</text><text fill="#D9B8FF" font-family="sans-serif" font-size="14" lengthAdjust="spacing" textLength="48" x="176" y="500.5342">: string</text></g><!--class resource--><g id="elem_resource"><rect codeLine="31" fill="#3D176E" height="310.7578" id="resource" rx="2.5" ry="2.5" style="stroke:#000D19;stroke-width:0.5;" width="227" x="7" y="7"/><ellipse cx="75.75" cy="26.8945" fill="#ADD1B2" rx="11" ry="11" style="stroke:#181818;stroke-width:1.0;"/><path d="M78.7188,32.5352 Q78.1406,32.832 77.5,32.9727 Q76.8594,33.1289 76.1563,33.1289 Q73.6563,33.1289 72.3281,31.4883 Q71.0156,29.832 71.0156,26.707 Q71.0156,23.582 72.3281,21.9258 Q73.6563,20.2695 76.1563,20.2695 Q76.8594,20.2695 77.5,20.4258 Q78.1563,20.582 78.7188,20.8789 L78.7188,23.5977 Q78.0938,23.0195 77.5,22.7539 Q76.9063,22.4727 76.2813,22.4727 Q74.9375,22.4727 74.25,23.5508 Q73.5625,24.6133 73.5625,26.707 Q73.5625,28.8008 74.25,29.8789 Q74.9375,30.9414 76.2813,30.9414 Q76.9063,30.9414 77.5,30.6758 Q78.0938,30.3945 78.7188,29.8164 L78.7188,32.5352 Z " fill="#000000"/><text fill="#D9B8FF" font-family="Helvetica" font-size="17" lengthAdjust="spacing" textLength="71" x="101.25" y="32.7798">resource</text><line style="stroke:#000D19;stroke-width:0.5;" x1="8" x2="233" y1="46.7891" y2="46.7891"/><text fill="#D9B8FF" font-family="sans-serif" font-size="14" font-weight="bold" lengthAdjust="spacing" textLength="29" x="18" y="68.7842">age</text><text fill="#D9B8FF" font-family="sans-serif" font-size="14" lengthAdjust="spacing" textLength="66" x="47" y="68.7842">: duration</text><text fill="#D9B8FF" font-family="sans-serif" font-size="14" font-weight="bold" lengthAdjust="spacing" textLength="43" x="18" y="95.0811">atime</text><text fill="#D9B8FF" font-family="sans-serif" font-size="14" lengthAdjust="spacing" textLength="70" x="61" y="95.0811">: datetime</text><text fill="#D9B8FF" font-family="sans-serif" font-size="14" font-weight="bold" lengthAdjust="spacing" textLength="43" x="18" y="121.3779">ctime</text><text fill="#D9B8FF" font-family="sans-serif" font-size="14" lengthAdjust="spacing" textLength="70" x="61" y="121.3779">: datetime</text><text fill="#D9B8FF" font-family="sans-serif" font-size="14" font-weight="bold" lengthAdjust="spacing" textLength="14" x="18" y="147.6748">id</text><text fill="#D9B8FF" font-family="sans-serif" font-size="14" lengthAdjust="spacing" textLength="48" x="32" y="147.6748">: string</text><text fill="#D9B8FF" font-family="sans-serif" font-size="14" font-weight="bold" lengthAdjust="spacing" textLength="33" x="18" y="173.9717">kind</text><text fill="#D9B8FF" font-family="sans-serif" font-size="14" lengthAdjust="spacing" textLength="48" x="51" y="173.9717">: string</text><text fill="#D9B8FF" font-family="sans-serif" font-size="14" font-weight="bold" lengthAdjust="spacing" textLength="90" x="18" y="200.2686">last_access</text><text fill="#D9B8FF" font-family="sans-serif" font-size="14" lengthAdjust="spacing" textLength="66" x="108" y="200.2686">: duration</text><text fill="#D9B8FF" font-family="sans-serif" font-size="14" font-weight="bold" lengthAdjust="spacing" textLength="90" x="18" y="226.5654">last_update</text><text fill="#D9B8FF" font-family="sans-serif" font-size="14" lengthAdjust="spacing" textLength="66" x="108" y="226.5654">: duration</text><text fill="#D9B8FF" font-family="sans-serif" font-size="14" font-weight="bold" lengthAdjust="spacing" textLength="48" x="18" y="252.8623">mtime</text><text fill="#D9B8FF" font-family="sans-serif" font-size="14" lengthAdjust="spacing" textLength="70" x="66" y="252.8623">: datetime</text><text fill="#D9B8FF" font-family="sans-serif" font-size="14" font-weight="bold" lengthAdjust="spacing" textLength="43" x="18" y="279.1592">name</text><text fill="#D9B8FF" font-family="sans-serif" font-size="14" lengthAdjust="spacing" textLength="48" x="61" y="279.1592">: string</text><text fill="#D9B8FF" font-family="sans-serif" font-size="14" font-weight="bold" lengthAdjust="spacing" textLength="34" x="18" y="305.4561">tags</text><text fill="#D9B8FF" font-family="sans-serif" font-size="14" lengthAdjust="spacing" textLength="171" x="52" y="305.4561">: dictionary[string, string]</text></g><!--reverse link digitalocean_resource to digitalocean_alert_policy--><g id="link_digitalocean_resource_digitalocean_alert_policy"><path codeLine="43" d="M224.1687,529.2271 C208.3487,561.9671 192.55,594.66 173.69,633.69 " fill="none" id="digitalocean_resource-backto-digitalocean_alert_policy" style="stroke:#FFAF37;stroke-width:2.0;"/><polygon fill="none" points="232,513.02,218.7663,526.6167,229.5711,531.8376,232,513.02" style="stroke:#FFAF37;stroke-width:2.0;"/></g><!--reverse link resource to digitalocean_alert_policy--><g id="link_resource_digitalocean_alert_policy"><path codeLine="44" d="M116.1972,335.8993 C115.6472,396.7093 116.52,449.11 120.5,512.84 C123.02,553.18 128.63,598.23 133.68,633.57 " fill="none" id="resource-backto-digitalocean_alert_policy" style="stroke:#FFAF37;stroke-width:2.0;"/><polygon fill="none" points="116.36,317.9,110.1974,335.845,122.197,335.9535,116.36,317.9" style="stroke:#FFAF37;stroke-width:2.0;"/></g><!--reverse link resource to digitalocean_resource--><g id="link_resource_digitalocean_resource"><path codeLine="45" d="M191.5095,334.7993 C210.1695,379.8393 221.97,408.34 234.47,438.51 " fill="none" id="resource-backto-digitalocean_resource" style="stroke:#FFAF37;stroke-width:2.0;"/><polygon fill="none" points="184.62,318.17,185.9664,337.0958,197.0526,332.5028,184.62,318.17" style="stroke:#FFAF37;stroke-width:2.0;"/></g><!--SRC=[hPDFQzj04CNl-XGBlfaOx8JKTiWbDOJs4aBJMobYj3kI5wzsnUmemKdxtRjhnK7_75zwC-_zTjwR4TvgXGBBYlUYn393yedVQLi1GIdkYDpBnXb7OfBda5yj- -QzitmMU80InJSqpyXQGf_ukTLoPz5xSTcoleBS5UHggvhnJ61ziD1oYzeOyFwEcNHMCxRAg7MsolC-sHywkLABvHSSO8uKqZiody_LOjr7paPzklS7yQHVKIpQHtjmZ8EQWuW3zMdBIBHA3XOz-YSxFe9IsXRYkgNzQ3gHHUheJrjGxYNIEHZVZl6CX8xt5Mu6M-5wfVBbAFpz59p8U3gXTA4PZ9C8DWM3n6dbZ9PxyPPCfmgz95snTdOwlGbZALGBklOfMiWCgYXdpfdmFEZDqpG6j_Y_Orc4tjKayP1JantXEmWKXv6g9eXreiAwR3HWZB-39aSqhJhTmv6wGiZY5AGCVvnUmi6fgpYhvvGZEHPAx0ncA9g9MiPdGFjVZNVnplmEguuVvVRFR3Ox_N6I_m8UlUGV]--></g></svg>

<svg xmlns="http://www.w3.org/2000/svg" width="368" height="767" viewBox="0 0 368 767"><rect width="248" height="126.68" x="19.5" y="633.84" fill="#3D176E" rx="2.5" ry="2.5" style="stroke:#000d19;stroke-width:.5"/><circle cx="34.5" cy="653.735" r="11" fill="#ADD1B2" style="stroke:#181818;stroke-width:1"/><path d="M37.469 659.375q-.578.297-1.219.438-.64.156-1.344.156-2.5 0-3.828-1.64-1.312-1.657-1.312-4.782t1.312-4.781q1.328-1.656 3.828-1.656.703 0 1.344.156.656.156 1.219.453v2.719q-.625-.578-1.219-.844-.594-.281-1.219-.281-1.343 0-2.031 1.078-.687 1.062-.687 3.156t.687 3.172q.688 1.062 2.031 1.062.625 0 1.219-.265.594-.281 1.219-.86z"/><text x="53.5" y="659.62" fill="#D9B8FF" font-family="Helvetica" font-size="17" textLength="206">digitalocean_alert_policy</text><path d="M20.5 673.629h246" style="stroke:#000d19;stroke-width:.5"/><text x="30.5" y="695.624" fill="#D9B8FF" font-family="sans-serif" font-size="14" font-weight="bold" textLength="89">description</text><text x="119.5" y="695.624" fill="#D9B8FF" font-family="sans-serif" font-size="14" textLength="48">: string</text><text x="30.5" y="721.921" fill="#D9B8FF" font-family="sans-serif" font-size="14" font-weight="bold" textLength="83">is_enabled</text><text x="113.5" y="721.921" fill="#D9B8FF" font-family="sans-serif" font-size="14" textLength="65">: boolean</text><text x="30.5" y="748.218" fill="#D9B8FF" font-family="sans-serif" font-size="14" font-weight="bold" textLength="88">policy_type</text><text x="118.5" y="748.218" fill="#D9B8FF" font-family="sans-serif" font-size="14" textLength="48">: string</text><rect width="223" height="74.086" x="138" y="438.75" fill="#3D176E" rx="2.5" ry="2.5" style="stroke:#000d19;stroke-width:.5"/><circle cx="153" cy="458.644" r="11" fill="#ADD1B2" style="stroke:#181818;stroke-width:1"/><path d="M155.969 464.285q-.578.297-1.219.438-.64.156-1.344.156-2.5 0-3.828-1.64-1.312-1.657-1.312-4.782t1.312-4.781q1.328-1.656 3.828-1.656.703 0 1.344.156.656.156 1.219.453v2.719q-.625-.579-1.219-.844-.594-.281-1.219-.281-1.344 0-2.031 1.078-.687 1.062-.687 3.156t.687 3.172q.688 1.062 2.031 1.062.625 0 1.219-.265.594-.281 1.219-.86z"/><text x="172" y="464.53" fill="#D9B8FF" font-family="Helvetica" font-size="17" textLength="181">digitalocean_resource</text><path d="M139 478.539h221" style="stroke:#000d19;stroke-width:.5"/><text x="149" y="500.534" fill="#D9B8FF" font-family="sans-serif" font-size="14" font-weight="bold" textLength="27">urn</text><text x="176" y="500.534" fill="#D9B8FF" font-family="sans-serif" font-size="14" textLength="48">: string</text><rect width="227" height="310.758" x="7" y="7" fill="#3D176E" rx="2.5" ry="2.5" style="stroke:#000d19;stroke-width:.5"/><circle cx="75.75" cy="26.895" r="11" fill="#ADD1B2" style="stroke:#181818;stroke-width:1"/><path d="M78.719 32.535q-.578.297-1.219.438-.64.156-1.344.156-2.5 0-3.828-1.64-1.312-1.657-1.312-4.782t1.312-4.781q1.328-1.656 3.828-1.656.703 0 1.344.156.656.156 1.219.453v2.719q-.625-.578-1.219-.844-.594-.281-1.219-.281-1.344 0-2.031 1.078-.687 1.062-.687 3.156t.687 3.172q.688 1.062 2.031 1.062.625 0 1.219-.265.594-.281 1.219-.86z"/><text x="101.25" y="32.78" fill="#D9B8FF" font-family="Helvetica" font-size="17" textLength="71">resource</text><path d="M8 46.789h225" style="stroke:#000d19;stroke-width:.5"/><text x="18" y="68.784" fill="#D9B8FF" font-family="sans-serif" font-size="14" font-weight="bold" textLength="29">age</text><text x="47" y="68.784" fill="#D9B8FF" font-family="sans-serif" font-size="14" textLength="66">: duration</text><text x="18" y="95.081" fill="#D9B8FF" font-family="sans-serif" font-size="14" font-weight="bold" textLength="43">atime</text><text x="61" y="95.081" fill="#D9B8FF" font-family="sans-serif" font-size="14" textLength="70">: datetime</text><text x="18" y="121.378" fill="#D9B8FF" font-family="sans-serif" font-size="14" font-weight="bold" textLength="43">ctime</text><text x="61" y="121.378" fill="#D9B8FF" font-family="sans-serif" font-size="14" textLength="70">: datetime</text><text x="18" y="147.675" fill="#D9B8FF" font-family="sans-serif" font-size="14" font-weight="bold" textLength="14">id</text><text x="32" y="147.675" fill="#D9B8FF" font-family="sans-serif" font-size="14" textLength="48">: string</text><text x="18" y="173.972" fill="#D9B8FF" font-family="sans-serif" font-size="14" font-weight="bold" textLength="33">kind</text><text x="51" y="173.972" fill="#D9B8FF" font-family="sans-serif" font-size="14" textLength="48">: string</text><text x="18" y="200.269" fill="#D9B8FF" font-family="sans-serif" font-size="14" font-weight="bold" textLength="90">last_access</text><text x="108" y="200.269" fill="#D9B8FF" font-family="sans-serif" font-size="14" textLength="66">: duration</text><text x="18" y="226.565" fill="#D9B8FF" font-family="sans-serif" font-size="14" font-weight="bold" textLength="90">last_update</text><text x="108" y="226.565" fill="#D9B8FF" font-family="sans-serif" font-size="14" textLength="66">: duration</text><text x="18" y="252.862" fill="#D9B8FF" font-family="sans-serif" font-size="14" font-weight="bold" textLength="48">mtime</text><text x="66" y="252.862" fill="#D9B8FF" font-family="sans-serif" font-size="14" textLength="70">: datetime</text><text x="18" y="279.159" fill="#D9B8FF" font-family="sans-serif" font-size="14" font-weight="bold" textLength="43">name</text><text x="61" y="279.159" fill="#D9B8FF" font-family="sans-serif" font-size="14" textLength="48">: string</text><text x="18" y="305.456" fill="#D9B8FF" font-family="sans-serif" font-size="14" font-weight="bold" textLength="34">tags</text><text x="52" y="305.456" fill="#D9B8FF" font-family="sans-serif" font-size="14" textLength="171">: dictionary[string, string]</text><path fill="none" d="M224.169 529.227 173.69 633.69M232 513.02l-13.234 13.597 10.805 5.22zM116.197 335.9c-.55 60.81.323 113.21 4.303 176.94 2.52 40.34 8.13 85.39 13.18 120.73M116.36 317.9l-6.163 17.945 12 .108zm75.15 16.9c18.66 45.04 30.46 73.54 42.96 103.71m-49.85-120.34 1.346 18.926 11.087-4.593z" style="stroke:#ffaf37;stroke-width:2"/></svg>
